src/assets/svg/registration.svg

<svg width="108" height="103" viewBox="0 0 108 103" fill="none" xmlns="http://www.w3.org/2000/svg">
<path d="M59.4616 16.5516V18.3908C59.4616 19.4078 58.6023 20.2299 57.5434 20.2299H15.3449C14.286 20.2299 13.4267 19.4078 13.4267 18.3908V16.5516H7.67236V90.1146C7.67236 90.1146 53.7935 90.1146 53.7916 90.0981C52.8383 84.6141 56.0492 79.8361 58.7499 75.3082C60.8599 71.7736 62.9698 68.2369 65.0798 64.7022C65.1085 64.6544 65.214 64.5367 65.214 64.478C65.2159 64.4743 65.2159 16.5516 65.2159 16.5516H59.4616V16.5516ZM15.3449 58.8503H30.6899C31.7488 58.8503 32.6081 59.6724 32.6081 60.6895C32.6081 61.7065 31.7488 62.5286 30.6899 62.5286H15.3449C14.286 62.5286 13.4267 61.7065 13.4267 60.6895C13.4267 59.6724 14.286 58.8503 15.3449 58.8503ZM15.3449 68.0458H38.3622C39.4211 68.0458 40.2804 68.8679 40.2804 69.8849C40.2804 70.902 39.4211 71.7241 38.3622 71.7241H15.3449C14.286 71.7241 13.4267 70.902 13.4267 69.8849C13.4267 68.8677 14.286 68.0458 15.3449 68.0458ZM46.0347 80.9193H15.3449C14.286 80.9193 13.4267 80.0972 13.4267 79.0802C13.4267 78.0632 14.286 77.2411 15.3449 77.2411H46.0347C47.0936 77.2411 47.9529 78.0632 47.9529 79.0802C47.9529 80.0972 47.0936 80.9193 46.0347 80.9193ZM36.4442 53.3331C27.9835 53.3331 21.0992 46.7327 21.0992 38.6205C21.0992 30.5082 27.9833 23.9078 36.4442 23.9078C44.905 23.9078 51.7893 30.5082 51.7893 38.6205C51.7893 46.7327 44.905 53.3331 36.4442 53.3331Z" fill="white"/>
<path d="M55.9858 97.1803C55.721 96.7058 55.4794 96.2222 55.2607 95.7274C55.1745 95.5343 55.0843 95.3448 55.0037 95.1499C54.8254 94.7047 54.6718 94.2505 54.53 93.7927H5.75433C4.69549 93.7927 3.83615 92.9706 3.83615 91.9536V14.7127C3.83615 13.6957 4.69549 12.8736 5.75433 12.8736H13.4269V9.19531H0.987728C0.442883 9.19531 0 9.61834 0 10.1423V96.5511C0 97.0568 0.431554 97.4706 0.958986 97.4706H56.1316C56.076 97.377 56.0395 97.2761 55.9858 97.1803Z" fill="white"/>
<path d="M36.445 11.0345C37.5044 11.0345 38.3632 10.2111 38.3632 9.19534C38.3632 8.17961 37.5044 7.3562 36.445 7.3562C35.3857 7.3562 34.5269 8.17961 34.5269 9.19534C34.5269 10.2111 35.3857 11.0345 36.445 11.0345Z" fill="white"/>
<path d="M36.4442 27.5861C30.0991 27.5861 24.9355 32.535 24.9355 38.6205C24.9355 44.7059 30.0991 49.6549 36.4442 49.6549C42.7912 49.6549 47.9529 44.7059 47.9529 38.6205C47.9529 32.535 42.7893 27.5861 36.4442 27.5861ZM42.1986 40.4596H38.3624V44.1377C38.3624 45.1547 37.5031 45.9768 36.4442 45.9768C35.3854 45.9768 34.526 45.1547 34.526 44.1377V40.4596H30.6899C29.631 40.4596 28.7717 39.6375 28.7717 38.6205C28.7717 37.6034 29.631 36.7813 30.6899 36.7813H34.526V33.1033C34.526 32.0862 35.3854 31.2641 36.4442 31.2641C37.5031 31.2641 38.3624 32.0862 38.3624 33.1033V36.7813H42.1986C43.2574 36.7813 44.1167 37.6034 44.1167 38.6205C44.1167 39.6375 43.2574 40.4596 42.1986 40.4596Z" fill="white"/>
<path d="M68.6738 66.089C66.7865 69.2503 64.8989 72.4118 63.0116 75.5731C60.3339 80.0604 57.2092 84.3381 57.6563 89.7855C57.9076 92.8402 59.1505 95.7698 61.2508 98.0853C62.2943 99.2364 63.5371 100.253 64.9816 101.061C68.4055 102.972 72.3971 103.485 76.2179 102.503C80.0696 101.515 83.2862 99.1316 85.2772 95.7957L94.492 80.3585L68.6738 66.089ZM81.9301 94.0869C80.0484 97.2557 76.3619 99.3117 72.399 99.3117L71.3057 99.3099C70.2469 99.3099 69.3876 98.4878 69.3876 97.4707C69.3876 96.4537 70.2469 95.6316 71.3057 95.6316H72.3971C74.9866 95.6316 77.3976 94.2855 78.6944 92.1171L84.9455 83.5434C85.5535 82.7102 86.7485 82.5098 87.6175 83.091C88.4865 83.6739 88.6955 84.8197 88.0894 85.6528L81.9301 94.0869Z" fill="white"/>
<path d="M52.6907 5.5172H47.7823C45.1411 5.5172 42.6225 4.29058 41.0459 2.23822C39.9545 0.816477 38.278 0 36.4463 0C34.6145 0 32.938 0.814667 31.8466 2.23822C30.27 4.29058 27.7514 5.5172 25.1103 5.5172H20.1978C18.579 5.5172 17.2632 6.78064 17.2632 8.33092V14.7125V16.5516H55.6256V14.7125V8.33092C55.6256 6.77883 54.3078 5.5172 52.6907 5.5172ZM36.4444 14.7127C33.2718 14.7127 30.69 12.2373 30.69 9.19547C30.69 6.15365 33.2699 3.67827 36.4444 3.67827C39.6169 3.67827 42.1987 6.15365 42.1987 9.19547C42.1987 12.2373 39.6169 14.7127 36.4444 14.7127Z" fill="white"/>
<path d="M71.9003 9.19348H59.4614V12.8718H67.1339V12.8736C68.1928 12.8736 69.0521 13.6957 69.0521 14.7127V58.0506L72.8883 51.6229V10.1407C72.8883 9.61832 72.4452 9.19348 71.9003 9.19348Z" fill="white"/>
<path d="M99.972 42.387C96.5481 40.4745 92.5565 39.9577 88.7356 40.9452C84.8879 41.9328 81.6711 44.3163 79.6782 47.6522L76.4711 53.026C76.4711 53.026 76.4711 53.026 76.4711 53.0278L70.5806 62.8963L96.3985 77.1656L105.417 62.0559C109.522 55.1795 107.081 46.3557 99.972 42.387ZM92.2189 47.8159C89.733 47.8159 87.6174 49.0647 86.2651 51.3304L80.5204 59.849C80.1541 60.3934 79.5364 60.6895 78.9072 60.6895C78.5504 60.6895 78.1899 60.5939 77.8677 60.3952C76.9777 59.8434 76.7226 58.7051 77.3 57.8518L82.9891 49.4179C84.9725 46.0928 88.3559 44.1378 92.2191 44.1378C93.278 44.1378 94.1373 44.9599 94.1373 45.977C94.1373 46.994 93.2796 47.8159 92.2189 47.8159Z" fill="white"/>
</svg>

<svg xmlns="http://www.w3.org/2000/svg" width="108" height="103" fill="#fff"><path d="M59.462 16.552v1.84c0 1.017-.86 1.84-1.918 1.84h-42.2c-1.06 0-1.918-.822-1.918-1.84v-1.84H7.672v73.563l46.12-.016c-.953-5.484 2.258-10.262 4.958-14.8l6.33-10.606c.03-.048.134-.166.134-.224.002-.004.002-47.926.002-47.926h-5.754zm-44.117 42.3H30.7c1.06 0 1.918.822 1.918 1.84s-.86 1.84-1.918 1.84H15.345c-1.06 0-1.918-.822-1.918-1.84s.86-1.84 1.918-1.84zm0 9.196h23.017c1.06 0 1.918.822 1.918 1.84s-.86 1.84-1.918 1.84H15.345c-1.06 0-1.918-.822-1.918-1.84s.86-1.84 1.918-1.84zm30.7 12.874h-30.7c-1.06 0-1.918-.822-1.918-1.84s.86-1.84 1.918-1.84h30.7c1.06 0 1.918.822 1.918 1.84s-.86 1.84-1.918 1.84zm-9.6-27.586c-8.46 0-15.345-6.6-15.345-14.713S27.984 23.9 36.445 23.9 51.8 30.5 51.8 38.623s-6.884 14.713-15.345 14.713zm19.54 43.844l-.725-1.453-.257-.578-.474-1.357H5.754c-1.06 0-1.918-.822-1.918-1.84v-77.24c0-1.017.86-1.84 1.918-1.84h7.673V9.195H.988c-.545 0-.988.423-.988.947v86.4c0 .506.432.92.96.92h55.173c-.056-.094-.092-.195-.146-.3zm-19.54-86.145c1.06 0 1.918-.823 1.918-1.84s-.86-1.84-1.918-1.84-1.918.823-1.918 1.84.86 1.84 1.918 1.84zm-.001 16.55c-6.345 0-11.5 4.95-11.5 11.034s5.164 11.034 11.5 11.034 11.5-4.95 11.5-11.034-5.164-11.034-11.5-11.034zM42.2 40.46h-3.836v3.678c0 1.017-.86 1.84-1.918 1.84s-1.918-.822-1.918-1.84V40.46H30.7c-1.06 0-1.918-.822-1.918-1.84s.86-1.84 1.918-1.84h3.836v-3.678c0-1.017.86-1.84 1.918-1.84s1.918.822 1.918 1.84v3.678H42.2c1.06 0 1.918.822 1.918 1.84s-.86 1.84-1.918 1.84zM68.674 66.1l-5.662 9.484c-2.678 4.487-5.802 8.765-5.355 14.212.25 3.055 1.494 5.984 3.594 8.3a14.74 14.74 0 0 0 3.731 2.976 15.2 15.2 0 0 0 11.236 1.442c3.852-.988 7.068-3.37 9.06-6.707l9.215-15.437L68.675 66.1zM81.93 94.087c-1.882 3.17-5.568 5.225-9.53 5.225l-1.093-.002c-1.06 0-1.918-.822-1.918-1.84s.86-1.84 1.918-1.84h1.1c2.6 0 5-1.346 6.297-3.515l6.25-8.574c.608-.833 1.803-1.034 2.672-.452s1.078 1.73.472 2.562l-6.16 8.434zM52.7 5.517h-4.908c-2.64 0-5.16-1.227-6.736-3.28C39.955.816 38.278 0 36.446 0s-3.508.815-4.6 2.238C30.27 4.3 27.75 5.517 25.1 5.517h-4.912c-1.62 0-2.935 1.263-2.935 2.814v8.22h38.362V8.33c0-1.552-1.318-2.814-2.935-2.814zm-16.246 9.196c-3.173 0-5.754-2.475-5.754-5.517s2.58-5.517 5.754-5.517S42.2 6.154 42.2 9.195s-2.582 5.517-5.754 5.517zM71.9 9.193H59.46v3.678l7.672.002c1.06 0 1.918.822 1.918 1.84V58.05l3.836-6.428V10.14c0-.522-.443-.947-.988-.947zm28.072 33.194c-3.424-1.913-7.415-2.43-11.236-1.442-3.848.988-7.065 3.37-9.057 6.707l-9.1 15.244 25.82 14.27 9.02-15.1c4.105-6.876 1.664-15.7-5.445-19.67zm-7.753 5.43c-2.486 0-4.602 1.25-5.954 3.514l-5.745 8.52c-.366.544-.984.84-1.613.84-.357 0-.717-.096-1.04-.294-.9-.552-1.145-1.7-.568-2.543l5.7-8.434c1.983-3.325 5.367-5.28 9.23-5.28 1.06 0 1.918.822 1.918 1.84s-.858 1.84-1.918 1.84z"/></svg>
